material/.icons/material/mine.svg

<svg xmlns="http://www.w3.org/2000/svg" viewBox="0 0 24 24"><path d="M23 13v-2h-3.07a7.988 7.988 0 00-1.62-3.9l2.19-2.17-1.43-1.43-2.17 2.19A7.988 7.988 0 0013 4.07V1h-2v3.07c-1.42.18-2.77.74-3.9 1.62L4.93 3.5 3.5 4.93 5.69 7.1A7.988 7.988 0 004.07 11H1v2h3.07c.18 1.42.74 2.77 1.62 3.9L3.5 19.07l1.43 1.43 2.17-2.19c1.13.88 2.48 1.44 3.9 1.62V23h2v-3.07c1.42-.18 2.77-.74 3.9-1.62l2.17 2.19 1.43-1.43-2.19-2.17a7.988 7.988 0 001.62-3.9H23M12 8a4 4 0 00-4 4H6a6 6 0 016-6v2z"/></svg>

<?xml version="1.0" encoding="UTF-8"?><!DOCTYPE svg PUBLIC "-//W3C//DTD SVG 1.1//EN" "http://www.w3.org/Graphics/SVG/1.1/DTD/svg11.dtd"><svg xmlns="http://www.w3.org/2000/svg" xmlns:xlink="http://www.w3.org/1999/xlink" version="1.1" id="mdi-mine" width="24" height="24" viewBox="0 0 24 24"><path d="M23,13V11H19.93C19.75,9.58 19.19,8.23 18.31,7.1L20.5,4.93L19.07,3.5L16.9,5.69C15.77,4.81 14.42,4.25 13,4.07V1H11V4.07C9.58,4.25 8.23,4.81 7.1,5.69L4.93,3.5L3.5,4.93L5.69,7.1C4.81,8.23 4.25,9.58 4.07,11H1V13H4.07C4.25,14.42 4.81,15.77 5.69,16.9L3.5,19.07L4.93,20.5L7.1,18.31C8.23,19.19 9.58,19.75 11,19.93V23H13V19.93C14.42,19.75 15.77,19.19 16.9,18.31L19.07,20.5L20.5,19.07L18.31,16.9C19.19,15.77 19.75,14.42 19.93,13H23M12,8A4,4 0 0,0 8,12H6A6,6 0 0,1 12,6V8Z" /></svg>
